X: 1
T: Im Hopalnu
T: Im Halpanim
O: Israel
Z: John Chambers <jc:trillian.mit.edu>
M: 4/4
L: 1/8
K: Am
X4 X4 X4 X4 "Intro"[|] X4 \
|| "Dm"zD2E F4 | zF2^G A4 | "B7"zA2B cBc^d | "E"e4 | z4 ||
P: in E:
|: "E"zB2^A B2^G2 | "Dm"zA2F "E"^G2 E2 | "Dm"zD2E FA^GF |1 "E"EF^GA B2e2 :|2 "E"E4- EEAB ||
|: "Am"c3e "(B7)"^dcBA | "E"^G/A/B-B2- BEAB | "Am"c2e2 "(B7)"^dcBA |1 "E"B4- BEAB :|2 "E"e2e2 e2z2 |]
P: in A:
K: Dm
|: "A"ze2^d e2^c2 | "Gm"zd2B "A"^c2 A2 | "Gm"zG2A Bd^cB |1 "A"AB^cd e2a2 :|2 "A"A4- AAde ||
|: "Dm"f3a "(E7)"^gfed | "A"^c/d/e-e2- eAde | "Dm"f2a2 "(E7)"^gfed |1 "A"e4- eAde :|2 "A"a2a2 a2z2 |]

%%sep 1 1 500

